X: 1233
T: You Never Saw Her Equal
M:C|
L:1/8
R:Reel
B:O'Neill's 1233
N:Collected by F. O'Neill
Z:Transcribed by Trish O'Neil
K:G
(Bc)|dBGB (3ABA GB|dBGBA2(Bc)|dBGB (3ABA GB|cABGA2(Bc)|
dBGB (3ABA GB|dBGBA2(Bd)|gfga bagf|gedBA2||
(Bd)|(3efe de gedg|(3efe dBA2(Bd)|(3efe de gedB|cABGA2(Bd)|
(3efe de gedg|(3efe dBA2(Bd)|(3efg (3fga gedB|cABGA2||


